X: 1557
T: Pek Cefâcûsun...
C: Kemânî Rıza Efendi
O: Turkey
F: http://compmusic.upf.edu/node/140
N: hicaz-humayun--sarki--agiraksak--pek_cefacusun--kemani_riza_efendi
N: makam= hicaz-humayun
N: form= sarki
N: usul= agiraksak = 9/4
M: 9/4
L: 1/16
K: C _7/8B ^c  
Q: 1/4=66
%%MIDI tuningsystem comma53
g3f e2d2 c2B2 A2G2 d2cd e2c2 d2=c_1/4B AGFE D4  | 
w:  ARANAĞME  | 
e^fed e2f2 g2a2 _1/4b3a g3=f f3e e3=c' bag^f e4  | 
w:   | 
z2a4_1/4b2 a2g^f e4 z2f2 g2a2 agfe d6z2  | \
w:   | 
(3e2^f2g2 (3=f2e2d2 c3B A2d2 c3B B2A2 A8 d2e^f  | 
w:   | 
g3f e2d2 c2B2 A2G2 d2cd e2c2 d2=c_1/4B AGFE D4  | 
w:  ARANAĞME  | 
e^fed e2f2 g2a2 _1/4b3a g3=f f3e e3=c' bag^f e4  | 
w:   | 
z2a4_1/4b2 a2g^f e4 z2f2 g2a2 agfe d6z2  | \
w:   | 
(3e2^f2g2 (3=f2e2d2 c3B A2d2 c3B B2A2 A6e^f edcd  | 
w:   | 
e2^f2 edcd e2e4g2 {g}=f3e d2f2 e2d2 c2B2 cdcB  | 
w:  *  *  *  *  *  *  *  Pek  ce *  fâ *  *  *  cû  | 
A8-A2d4e2 ^2/4fg=fe d2ef eddc d8  | \
w:  *  sun  sa na  *  *  *  *  *  *  yok  | 
c4 d4 d2e2 d2c2 d2ef edc2 g6f2 f3e  | 
w:  tur  *  *  *  *  *  *  *  *  *  *  *  be  | 
agfe d4 d2e2 d2c2 cdcB ABcd B2c4Bc edcB  | 
w:  del  *  *  *  *  *  *  *  a  ca *  *  *  *  *  *  *  nım    | 
A3/2G/AB cde/f/g/a/ g2g2 f2e2 e2d2 c2B2 cdcB A8  | 
w:  SAZ *  *  *  *  *  *  *  *  *  *  Ah  *  mü rüv *  *  *  vet  | 
A2A2 G2A2 _2/4B2=c2 B2A2 A2G4^3/4F2 AGFE D8  | \
w:  *  siz  *  *  *  *  *  ye ter  *  *  in  | 
z2G4B4A4c2 BcBA G4 cde^2/4f ag=fe fedc  | 
w:  sâ *  *  *  *  *  *  *  *  fa   | 
dcB12BA ABc4BA A6ef edcd  | e8 z2ed c2d2 e8 ^g4 a4 =b4  | 
w:  gel  *  *  a *  man   *  *  *  *  *  SAZ  |  *  Var  *  *  mı  böy le   | 
a3^g f2a2 g3f e2g2 f3e d4 e3f g2a2 =b4  | \
w:  cev *  *  *  re  *  *  *  mâ *  *  il   | 
a3^g f2a2 g3f e2=g2 f3e d4 g8 g2^3/4f2  | 
w:  bir  *  *  *  *  *  *  *  *  *  *  gü  | 
ag^fe d4 d2e2 d2c2 cdcB ABcd B2c4d2 edcB  | 
w:  zel  *  *  *  *  *  *  *  a  ca *  *  *  *  *  *  *  nım    | 
A3/2G/AB cde/f/g/a/ g2g2 f2e2 e2d2 c2B2 cdcB A8  | 
w:  SAZ *  *  *  *  *  *  *  *  *  *  Ah  *  mü rüv *  *  *  vet  | 
A2A2 G2A2 _2/4B2=c2 B2A2 A2G4^3/4F2 AGFE D8  | \
w:  *  siz  *  *  *  *  *  ye ter  *  *  in  | 
z2G4B4A4c2 BcBA G4 cde^2/4f ag=fe fedc  | 
w:  sâ *  *  *  *  *  *  *  *  fa   | 
dcB12BA ABc4BA A6|
w:  gel  *  *  a *  man    | 


